X:1
T:Rat:tle the Bottles -- Reel
R:reel
B:Ryan's Mammoth Collection
N: 365
Z: Contributed by Ray Davies,  ray:davies99.freeserve.co.uk
M:C|
L:1/8
K:G
u"4"e|\
vdBAG FAAc | BGBd (ef/g/) (fe) | dBAG FAAc | BdAc BGG"4"e |
dBAG FAAc | BGBd (ef/g/) (fe) | dBAG FAAc | BdAc BGG  |]
ud|\
vg2(fg) afdf | ggfg a2(ga) | bagf gfed | (eg)fa g2gd |
vg2(fg) afdf | ggfg a2(ga) | bagf gfed | v(eg)fa ug2vg  |]
